X:1
T:Title
%%score { 1 | 2 }
L:1/8
Q:1/4=100
M:4/4
K:Ab
V:1 treble nm="Grand Piano"
V:2 bass 
V:1
 [Ec]>[Fd] [Ec]>[DB] [CA]>[CE] [CF]>[CA] | [DG]2 [Gd]2 [Gd]4 | [Gd]>G F>=E _E2 d2 | c2 _c2 =c4 | %4
w: A.~W.~McKee * * * * * * *||||
 e>c B>A G2 A2 | [FB]2 [Fc]2 [Fd]4 | [=Dc]>[DA] [DG]>[DF] [DB]2 [Dc]2 | [EB]6 z2 | [Ec]4 [CE]4 | %9
w: |||||
 [DF]>[EG] [FA]>[=EB] [_Ec] e3 | c4 A4 | [=DB]>[Dc] [DB]>[Dc] B4 | d>c d>c d B3 | %13
w: ||||
 [Ec]>[=D_c] [E=c]>[D_c] [E=c] [EA]3 | [DF]>[FA] [EG]>F E>[Ae] [Af]2 |[M:7/8] [Ec] [DEB]3 [CEA]3 |] %16
w: |||
V:2
 [A,,A,]>[A,,A,] [A,,A,]>[A,,A,] [A,,A,]>[A,,A,] [A,,A,]>[A,,E,] | [B,,E,]2 [E,B,]2 [E,B,]4 | %2
 [E,B,]>[E,B,D] [E,B,D]>[E,A,D] [E,G,D]2 [E,G,F]2 | [A,E]2 [A,=D]2 [A,E]4 | %4
 [A,CE]>[A,E] [A,DE]>[A,CE] [B,DE]2 [A,CE]2 | [D,B,]2 [C,=A,]2 [B,,B,]4 | %6
 [B,,A,]>[B,,F,] [B,,B,]>[B,,A,] [B,,A,]2 [B,,A,]2 | [E,G,]6 z2 | [A,,A,]4 [A,,A,]4 | %9
 [D,A,]>[D,A,] [D,D]>[D,A,] [A,,A,] [A,,CE]3 | [A,E]4 [F,A,C]4 | %11
 [B,,A,]>[B,,A,] [B,,A,]>[B,,A,] [E,G,E]4 | [E,B,E]>[E,=A,E] [E,B,E]>[E,A,E] [E,B,E] [E,G,E]3 | %13
 [A,,A,]>[A,,A,] [A,,A,]>[A,,A,] [A,,A,] [C,A,]3 | %14
 [D,A,]>[D,D] [D,D]>[D,A,D] [C,A,]>[C,A,] [D,D]2 |[M:7/8] [E,A,] E,3 A,,3 |] %16

